svgs/sharp-regular/compress-wide.svg

<svg xmlns="http://www.w3.org/2000/svg" viewBox="0 0 512 512"><!--! Font Awesome Pro 6.6.0 by @fontawesome - https://fontawesome.com License - https://fontawesome.com/license (Commercial License) Copyright 2024 Fonticons, Inc. --><path d="M160 88l0-24-48 0 0 24 0 88-88 0L0 176l0 48 24 0 112 0 24 0 0-24 0-112zM24 288L0 288l0 48 24 0 88 0 0 88 0 24 48 0 0-24 0-112 0-24-24 0L24 288zM400 88l0-24-48 0 0 24 0 112 0 24 24 0 112 0 24 0 0-48-24 0-88 0 0-88zM376 288l-24 0 0 24 0 112 0 24 48 0 0-24 0-88 88 0 24 0 0-48-24 0-112 0z"/></svg>

<svg xmlns="http://www.w3.org/2000/svg" viewBox="0 0 512 512"><!--! Font Awesome Pro 6.4.0 by @fontawesome - https://fontawesome.com License - https://fontawesome.com/license (Commercial License) Copyright 2023 Fonticons, Inc. --><path d="M160 88V64H112V88v88H24 0v48H24 136h24V200 88zM24 288H0v48H24h88v88 24h48V424 312 288H136 24zM400 88V64H352V88 200v24h24H488h24V176H488 400V88zM376 288H352v24V424v24h48V424 336h88 24V288H488 376z"/></svg>
